public/img/quality-check-icon.svg

<svg width="44" height="44" viewBox="0 0 44 44" fill="none" xmlns="http://www.w3.org/2000/svg">
<g id="Frame">
<path id="Vector" opacity="0.34" d="M15.3633 21.9962L19.7816 26.4329L28.6366 17.5596" stroke="#1E293B" stroke-width="2.75" stroke-linecap="round" stroke-linejoin="round"/>
<path id="Vector_2" d="M19.7083 4.49167C20.9733 3.41 23.0449 3.41 24.3283 4.49167L27.2249 6.985C27.7749 7.46167 28.8016 7.84667 29.5349 7.84667H32.6516C34.5949 7.84667 36.1899 9.44167 36.1899 11.385V14.5017C36.1899 15.2167 36.5749 16.2617 37.0516 16.8117L39.5449 19.7083C40.6266 20.9733 40.6266 23.045 39.5449 24.3283L37.0516 27.225C36.5749 27.775 36.1899 28.8017 36.1899 29.535V32.6517C36.1899 34.595 34.5949 36.19 32.6516 36.19H29.5349C28.8199 36.19 27.7749 36.575 27.2249 37.0517L24.3283 39.545C23.0633 40.6267 20.9916 40.6267 19.7083 39.545L16.8116 37.0517C16.2616 36.575 15.2349 36.19 14.5016 36.19H11.3299C9.38661 36.19 7.79161 34.595 7.79161 32.6517V29.5167C7.79161 28.8017 7.40661 27.775 6.94828 27.225L4.47328 24.31C3.40995 23.045 3.40995 20.9917 4.47328 19.7267L6.94828 16.8117C7.40661 16.2617 7.79161 15.235 7.79161 14.52V11.3667C7.79161 9.42334 9.38661 7.82834 11.3299 7.82834H14.5016C15.2166 7.82834 16.2616 7.44334 16.8116 6.96667L19.7083 4.49167Z" stroke="#1E293B" stroke-width="2.75" stroke-linecap="round" stroke-linejoin="round"/>
</g>
</svg>

<svg width="44" height="44" fill="none" xmlns="http://www.w3.org/2000/svg"><g stroke="#1E293B" stroke-width="2.75" stroke-linecap="round" stroke-linejoin="round"><path opacity=".34" d="m15.363 21.996 4.419 4.437 8.855-8.873"/><path d="M19.708 4.492c1.265-1.082 3.337-1.082 4.62 0l2.897 2.493c.55.477 1.577.862 2.31.862h3.117a3.552 3.552 0 0 1 3.538 3.538v3.117c0 .715.385 1.76.862 2.31l2.493 2.896c1.082 1.265 1.082 3.337 0 4.62l-2.493 2.897c-.477.55-.862 1.577-.862 2.31v3.117a3.552 3.552 0 0 1-3.538 3.538h-3.117c-.715 0-1.76.385-2.31.862l-2.897 2.493c-1.265 1.082-3.336 1.082-4.62 0l-2.896-2.493c-.55-.477-1.577-.862-2.31-.862H11.33a3.552 3.552 0 0 1-3.538-3.538v-3.135c0-.715-.385-1.742-.844-2.292L4.473 24.31c-1.063-1.265-1.063-3.318 0-4.583l2.475-2.915c.459-.55.844-1.577.844-2.292v-3.153a3.552 3.552 0 0 1 3.538-3.539h3.172c.715 0 1.76-.385 2.31-.861l2.896-2.475Z"/></g></svg>
